X: 14
M: 6/8
L: 1/8
K: C
|:\
c2d (ec)A | (G>AB/c/) (dB)G |\
e2f (ge)c | (fd)B cGE :|\
|:\
ccc (cd/e/)f | e3 e>dc |
|:\
(ed2) B2G | (gf2) e2c |\
(e2d) (f2e) | g3 e2c :|

